frontend/public/svg/interface/fast-forward.svg

<svg width="106" height="99" viewBox="0 0 106 99" fill="none" xmlns="http://www.w3.org/2000/svg">
<g clip-path="url(#clip0)">
<path d="M102.46 41.4408C102.06 41.1224 101.644 40.825 101.213 40.5498C101.069 40.454 100.926 40.357 100.783 40.2625C84.1402 28.934 70.1162 17.8982 57.9087 6.52411C56.278 5.00374 54.4586 3.39204 52.1836 1.45061C50.746 0.223401 49.5749 0.161674 48.8451 0.32946C48.1321 0.49146 47.1358 1.02827 46.4183 2.66884C46.1101 3.49476 45.9418 4.36564 45.9205 5.24608L45.8811 5.72241C45.8563 6.09693 45.8667 6.473 45.9127 6.84553C45.9467 7.12621 45.9582 7.409 45.9471 7.69147C45.3125 16.2601 44.6579 24.884 44.0026 33.3248C43.9606 33.7469 43.8925 34.1659 43.7985 34.5797L43.7273 34.5012C43.1491 33.8725 42.6506 33.3299 42.1114 32.8169C32.5814 23.7655 23.0445 14.7214 13.5002 5.68451C11.6272 3.87869 9.16601 2.79481 6.55926 2.62772C4.87408 2.48951 3.57312 2.55378 2.69553 3.30785C1.97479 3.92757 1.6223 4.92016 1.51665 6.62825C1.33452 9.56611 1.27616 12.5791 1.34227 15.5838C1.71301 32.4203 2.36818 52.3213 4.41179 72.2694C5.3017 80.9519 6.97984 87.8028 9.6949 93.8289C9.95973 94.4075 10.0926 95.0369 10.0839 95.672C10.0482 96.6581 10.1078 98.0339 11.0385 98.5854C11.2949 98.7352 11.5876 98.8124 11.885 98.8079C12.5963 98.7481 13.2812 98.5115 13.8761 98.12L14.4828 97.7684C17.5245 96.1291 20.4098 94.2191 23.1032 92.0617C31.9102 84.5403 38.2699 78.2911 43.7201 71.7995C44.0073 71.4575 44.3151 71.1258 44.6859 70.7311C44.7371 71.3206 44.7818 71.8104 44.8433 72.299C45.1225 74.5053 45.4034 76.7109 45.686 78.9159C46.0585 81.8255 46.4287 84.7351 46.7968 87.6459C46.9213 88.6353 47.1093 90.1319 49.1457 90.3935C49.238 90.4038 49.3315 90.3961 49.4206 90.3704C49.5097 90.344 49.5926 90.3009 49.6642 90.2418C49.7543 90.1717 49.8487 90.1074 49.9469 90.0489C50.4166 89.8233 50.7796 89.4247 50.96 88.9387C51.461 86.8861 53.0825 86.132 54.9602 85.259L55.2384 85.1304C69.2775 78.5694 82.5742 70.1313 95.8891 59.3348C97.9671 57.6437 99.9401 55.8295 101.797 53.902C102.92 52.7375 103.842 51.3973 104.526 49.9355C105.954 46.8543 105.181 43.6793 102.46 41.4408ZM91.0306 46.0649L90.9146 46.1338C90.3812 46.4378 89.8659 46.7711 89.3707 47.1321C87.4425 48.5995 85.5194 50.0747 83.6022 51.5575C80.156 54.2138 76.5925 56.9575 73.0374 59.5843C66.7795 64.1978 60.9112 69.3097 55.4911 74.8691C55.0776 75.2941 54.6421 75.7049 54.1852 76.1234L53.5207 15.1165C64.8508 26.7561 77.4286 37.1338 91.0306 46.0649ZM38.8214 63.3616C35.2799 67.1754 31.5718 70.9619 27.9863 74.6223L26.8844 75.7486C23.9457 78.7501 20.9267 81.785 18.0049 84.7196C17.0594 85.6711 16.1125 86.6238 15.164 87.5778C14.3706 64.6484 12.9539 41.3148 10.8402 16.3636C11.208 16.727 11.5767 17.089 11.9465 17.4495C13.9622 19.4102 15.9741 21.3745 17.9821 23.3425C23.0681 28.3176 28.3266 33.4623 33.6025 38.4175C36.0436 40.6074 38.63 42.6327 41.344 44.4797L42.5631 45.3513C43.0363 45.6407 43.4286 46.0435 43.7036 46.5227C43.9786 47.0018 44.1275 47.5419 44.1368 48.0932L44.1563 48.3715C44.7519 56.9735 44.7519 56.9735 38.8227 63.3616H38.8214Z" fill="black"/>
</g>
<defs>
<clipPath id="clip0">
<rect width="105" height="99" fill="white" transform="translate(0.777344)"/>
</clipPath>
</defs>
</svg>

<svg xmlns="http://www.w3.org/2000/svg" width="106" height="99" fill="none" viewBox="0 0 106 99"><g clip-path="url(#a)"><path fill="#000" d="M102.46 41.44q-.6-.477-1.247-.89l-.43-.287C84.14 28.934 70.116 17.898 57.909 6.524c-1.631-1.52-3.45-3.132-5.725-5.073C50.746.223 49.574.16 48.845.329c-.713.162-1.71.7-2.427 2.34a7.9 7.9 0 0 0-.498 2.577l-.039.476q-.037.563.032 1.124.05.421.034.845a7268 7268 0 0 1-1.944 25.634q-.063.633-.205 1.255l-.07-.079c-.579-.628-1.077-1.171-1.617-1.684Q27.817 19.24 13.501 5.685a11 11 0 0 0-6.942-3.057c-1.685-.138-2.986-.074-3.863.68-.721.62-1.074 1.612-1.18 3.32-.181 2.938-.24 5.951-.174 8.956.371 16.836 1.026 36.737 3.07 56.685.89 8.683 2.568 15.534 5.283 21.56.265.579.398 1.208.389 1.843-.036.986.024 2.362.955 2.913.256.15.549.227.846.223a4.3 4.3 0 0 0 1.991-.688l.607-.352a57 57 0 0 0 8.62-5.706C31.91 84.54 38.27 78.292 43.72 71.799c.287-.342.595-.673.966-1.068.051.59.096 1.08.157 1.568q.42 3.31.843 6.617.56 4.365 1.11 8.73c.125.99.313 2.486 2.35 2.748q.139.015.275-.024a.7.7 0 0 0 .243-.128q.136-.106.283-.193c.47-.226.833-.624 1.013-1.11.501-2.053 2.123-2.807 4-3.68l.278-.129c14.04-6.56 27.336-14.999 40.651-25.795a66 66 0 0 0 5.908-5.433 14.7 14.7 0 0 0 2.729-3.967c1.428-3.08.655-6.256-2.066-8.494m-11.43 4.625-.115.069q-.802.456-1.544.998a932 932 0 0 0-5.769 4.426c-3.446 2.656-7.01 5.4-10.565 8.026A143 143 0 0 0 55.491 74.87a32 32 0 0 1-1.306 1.254l-.664-61.006a223.7 223.7 0 0 0 37.51 30.948M38.822 63.362c-3.541 3.813-7.25 7.6-10.835 11.26l-1.102 1.127a1515 1515 0 0 1-8.88 8.97l-2.84 2.859c-.793-22.93-2.21-46.263-4.324-71.214q.552.545 1.107 1.085a2237 2237 0 0 1 6.035 5.893c5.086 4.976 10.345 10.12 15.62 15.075a74 74 0 0 0 7.742 6.063l1.22.871c.472.29.865.693 1.14 1.172s.423 1.019.433 1.57l.02.278c.595 8.603.595 8.603-5.334 14.99z"/></g><defs><clipPath id="a"><path fill="#fff" d="M.777 0h105v99h-105z"/></clipPath></defs></svg>
